dist/common.blocks/about/coins/DASH.svg

<?xml version="1.0" encoding="UTF-8" standalone="no"?>
<svg width="56px" height="56px" viewBox="0 0 56 56" version="1.1" xmlns="http://www.w3.org/2000/svg" xmlns:xlink="http://www.w3.org/1999/xlink">
    <!-- Generator: Sketch 46.2 (44496) - http://www.bohemiancoding.com/sketch -->
    <title>DASH</title>
    <desc>Created with Sketch.</desc>
    <defs></defs>
    <g id="Page-1" stroke="none" stroke-width="1" fill="none" fill-rule="evenodd">
        <g id="dash">
            <g id="DASH">
                <rect id="Rectangle-1" fill="#157DD1" x="0" y="0" width="56" height="56" rx="28"></rect>
                <path d="M47.1980365,19.6309639 C47.3239885,20.4702656 47.2190383,21.3322031 46.9042466,22.1034069 L43.4413605,33.8760122 C43.1265687,34.6926146 42.7488303,35.4638184 42.2870847,36.2123865 C41.7414495,36.9609546 41.111866,37.6414249 40.419277,38.2311615 C39.7056862,38.8662967 38.866261,39.3199647 38.1316685,39.7736327 C37.3984877,40.066816 36.6256566,40.2277458 35.8441187,40.25 L9.61050931,40.25 L11.478317,34.193548 L35.1305868,34.193548 L38.866261,21.8085704 L15.2139913,21.8085704 L17.081799,15.7521184 L43.1895153,15.7521184 C43.8821043,15.7294827 44.5746932,15.8882506 45.2042768,16.2284857 C45.8129174,16.4779872 46.3375508,16.9770538 46.6313996,17.612189 C46.9671931,18.2246249 47.1560917,18.9277944 47.1980365,19.6309639 Z M24.532181,25.1883493 L22.8112683,30.7910697 L8.75,30.7910697 L10.6178665,25.1883493 L24.532181,25.1883493 Z" id="Combined-Shape" fill="#FFFFFF"></path>
            </g>
        </g>
    </g>
</svg>

<svg width="56" height="56" xmlns="http://www.w3.org/2000/svg"><g fill="none" fill-rule="evenodd"><rect fill="#157DD1" width="56" height="56" rx="28"/><path d="M47.198 19.631a4.72 4.72 0 0 1-.294 2.472l-3.463 11.773a14.013 14.013 0 0 1-1.154 2.336 11.728 11.728 0 0 1-1.868 2.02c-.713.634-1.553 1.088-2.287 1.542a6.667 6.667 0 0 1-2.288.476H9.611l1.867-6.056h23.653l3.735-12.385H15.214l1.868-6.057H43.19a3.955 3.955 0 0 1 2.014.476c.609.25 1.134.75 1.427 1.384.336.613.525 1.316.567 2.019zm-22.666 5.557l-1.72 5.603H8.75l1.868-5.603h13.914z" fill="#FFF"/></g></svg>
